public/static/images/logos/social-linkedin.svg

<svg width="20" height="20" viewBox="0 0 20 20" fill="none" xmlns="http://www.w3.org/2000/svg"><g id="Social Icon"><rect id="bg" width="20" height="20" rx="10" fill="#1275B1"/><g id="linked_in"><path d="M7.58468 5.49444C7.58468 6.16198 7.00608 6.70312 6.29234 6.70312C5.5786 6.70312 5 6.16198 5 5.49444C5 4.82691 5.5786 4.28577 6.29234 4.28577C7.00608 4.28577 7.58468 4.82691 7.58468 5.49444Z" fill="white"/><path d="M5.17673 7.59155H7.38586V14.2858H5.17673V7.59155Z" fill="white"/><path d="M10.9426 7.59155H8.73343V14.2858H10.9426C10.9426 14.2858 10.9426 12.1783 10.9426 10.8607C10.9426 10.0698 11.2126 9.27544 12.2901 9.27544C13.5079 9.27544 13.5005 10.3104 13.4949 11.1123C13.4874 12.1604 13.5052 13.2299 13.5052 14.2858H15.7143V10.7527C15.6956 8.49675 15.1077 7.45725 13.1738 7.45725C12.0253 7.45725 11.3134 7.97867 10.9426 8.4504V7.59155Z" fill="white"/></g></g></svg>

<svg xmlns="http://www.w3.org/2000/svg" width="20" height="20" fill="none"><rect width="20" height="20" fill="#1275B1" rx="10"/><path fill="#fff" d="M7.585 5.494c0 .668-.579 1.21-1.293 1.21C5.58 6.703 5 6.161 5 5.493c0-.667.579-1.208 1.292-1.208.714 0 1.293.54 1.293 1.208ZM5.177 7.592h2.209v6.694h-2.21V7.592ZM10.943 7.592h-2.21v6.694h2.21V10.86c0-.791.27-1.586 1.347-1.586 1.218 0 1.21 1.035 1.205 1.837-.008 1.048.01 2.118.01 3.174h2.21v-3.533c-.02-2.256-.607-3.296-2.541-3.296-1.149 0-1.86.522-2.231.993v-.858Z"/></svg>
